X: 3670
T: Billy Brocker's
R: reel
M: 4/4
K: Dmajor
AF~F2 AFdB|ADFA ~G3B|AF~F2 ABde|f2eg fddB|
AF~F2 AFdB|AF~F2 ~G3B|(3ABA FA ABde|fAeA fd(3ddd||
d2df ~a3f|eABA eABA|dedf ~a3g|faea fd(3ddd|
d2df ~a3f|eABA eABA|~f3a g2 (3efg|a2ge fdd2|

